images/labajainspira-itinerante/2024/logos/tvmar.svg

<svg clip-rule="evenodd" fill-rule="evenodd" stroke-linejoin="round" stroke-miterlimit="2" viewBox="0 0 195 99" xmlns="http://www.w3.org/2000/svg"><g transform="matrix(.756827 0 0 .58673 -454.957 169.562)"><path d="m601.736-288.994h255.766v167.5h-255.766z" fill="none"/><g fill-rule="nonzero"><path d="m0-8.228c3.543 1.014 6.141 4.272 6.141 8.142 0 2.356-.962 4.487-2.514 6.023h7.501v-20.016c-.449-.057-.907-.086-1.373-.086-4.246 0-7.927 2.411-9.755 5.937" fill="#ec6d26" transform="matrix(1.32131 0 0 1.70436 669.34772124 -191.16261128)"/><path d="m0-3.735c0-1.821.446-3.535 1.23-5.047-.743-.213-1.525-.335-2.335-.335-3.812 0-7.035 2.517-8.101 5.979 1.897.951 3.2 2.907 3.2 5.171 0 1.247-.393 2.402-1.064 3.347v.001l5.159.001h6.767c-2.929-1.973-4.856-5.32-4.856-9.117" fill="#f9b51d" transform="matrix(1.32131 0 0 1.70436 667.72383125 -190.21669148)"/><path d="m-1.794-.069c1.885 1.103 3.345 2.93 3.929 5.212.96 3.748-.747 7.548-3.929 9.411-1.134-1.27-1.99-2.821-2.442-4.586-.942-3.679.093-7.399 2.442-10.037" fill="#ed7a43" transform="matrix(1.27999924285 -.42285001164 -.32781568969 -1.6510731846 676.41408712 -181.91645828)"/><path d="m0-2.911c0-.87.132-1.707.375-2.498-.78-.391-1.657-.615-2.588-.615-1.474 0-2.821.55-3.842 1.458l-.018.015.018 7.664h8.564l.001-.003c-1.55-1.536-2.51-3.666-2.51-6.021" fill="#0694a8" transform="matrix(1.32131 0 0 1.70436 655.06436014 -186.34779428)"/><path d="m-1.057-.048c.88.754 1.543 1.778 1.846 2.987.551 2.198-.238 4.412-1.846 5.796-.429-.706-.76-1.489-.971-2.332-.572-2.284-.159-4.583.971-6.451" fill="#fec531" transform="matrix(1.28167334262 -.41432650728 -.32120781838 -1.65323260872 659.72197789 -181.56536012)"/><path d="m0-5.128-8.259 8.355h-1.14l-8.307-8.355v16.806h-5.745v-28.484h1.567l12.96 12.77 13.102-12.77h1.519v28.484h-5.697z" fill="#003a47" transform="matrix(1.32131 0 0 1.70436 722.55291101 -200.87405456)"/><path d="m0-28.483h.997l14.669 28.483h-6.503l-1.854-3.893h-13.623l-1.804 3.893h-6.503zm.665 10.396h-.381l-4.319 9.304-.333.618h9.685l-.333-.618z" fill="#003a47" transform="matrix(1.32131 0 0 1.70436 753.2984734 -180.97053848)"/><path d="m0-28.483h12.866c7.215 0 11.678 3.56 11.678 9.779 0 4.225-2.09 7.121-5.365 8.688v.427l6.789 9.02v.569h-6.504l-6.313-8.688h-7.406v8.688h-5.745zm12.676 5.032h-6.931v9.921h7.072c3.609 0 5.792-1.612 5.792-4.937 0-3.276-2.231-4.984-5.933-4.984" fill="#003a47" transform="matrix(1.32131 0 0 1.70436 777.89201643 -180.97053848)"/><path d="m0-7.134h6.087v1.261h-2.319v5.873h-1.438v-5.873h-2.33z" fill="#003a47" transform="matrix(1.32131 0 0 1.70436 651.108358 -212.47052)"/><path d="m0 1.971h.119l.583-1.354 1.522-3.198h1.628l-3.674 7.133h-.261l-3.65-7.133h1.617l1.534 3.198z" fill="#003a47" transform="matrix(1.32131 0 0 1.70436 665.72336791 -220.22706236)"/></g></g></svg>

<?xml version="1.0" encoding="UTF-8" standalone="no"?>
<!DOCTYPE svg PUBLIC "-//W3C//DTD SVG 1.1//EN" "http://www.w3.org/Graphics/SVG/1.1/DTD/svg11.dtd">
<svg width="100%" height="100%" viewBox="0 0 195 99" version="1.1" xmlns="http://www.w3.org/2000/svg" xmlns:xlink="http://www.w3.org/1999/xlink" xml:space="preserve" xmlns:serif="http://www.serif.com/" style="fill-rule:evenodd;clip-rule:evenodd;stroke-linejoin:round;stroke-miterlimit:2;">
    <g transform="matrix(1,0,0,1,-213,0)">
        <g id="Artboard1" transform="matrix(0.756827,0,0,0.58673,-241.957,169.562)">
            <rect x="601.736" y="-288.994" width="255.766" height="167.5" style="fill:none;"/>
            <g id="tvmar" transform="matrix(1.32131,0,0,1.70436,-408.318,-882.284)">
                <g transform="matrix(1,0,0,1,815.604,405.502)">
                    <path d="M0,-8.228C3.543,-7.214 6.141,-3.956 6.141,-0.086C6.141,2.27 5.179,4.401 3.627,5.937L11.128,5.937L11.128,-14.079C10.679,-14.136 10.221,-14.165 9.755,-14.165C5.509,-14.165 1.828,-11.754 0,-8.228" style="fill:rgb(236,109,38);fill-rule:nonzero;"/>
                </g>
                <g transform="matrix(1,0,0,1,814.375,406.057)">
                    <path d="M0,-3.735C0,-5.556 0.446,-7.27 1.23,-8.782C0.487,-8.995 -0.295,-9.117 -1.105,-9.117C-4.917,-9.117 -8.14,-6.6 -9.206,-3.138C-7.309,-2.187 -6.006,-0.231 -6.006,2.033C-6.006,3.28 -6.399,4.435 -7.07,5.38L-7.07,5.381L-1.911,5.382L4.856,5.382C1.927,3.409 0,0.062 0,-3.735" style="fill:rgb(249,181,29);fill-rule:nonzero;"/>
                </g>
                <g transform="matrix(0.968735,-0.248099,-0.248099,-0.968735,820.952,410.927)">
                    <path d="M-1.794,-0.069C0.091,1.034 1.551,2.861 2.135,5.143C3.095,8.891 1.388,12.691 -1.794,14.554C-2.928,13.284 -3.784,11.733 -4.236,9.968C-5.178,6.289 -4.143,2.569 -1.794,-0.069" style="fill:rgb(237,122,67);fill-rule:nonzero;"/>
                </g>
                <g transform="matrix(1,0,0,1,804.794,408.327)">
                    <path d="M0,-2.911C0,-3.781 0.132,-4.618 0.375,-5.409C-0.405,-5.8 -1.282,-6.024 -2.213,-6.024C-3.687,-6.024 -5.034,-5.474 -6.055,-4.566L-6.073,-4.551L-6.055,3.113L2.509,3.113L2.51,3.11C0.96,1.574 0,-0.556 0,-2.911" style="fill:rgb(6,148,168);fill-rule:nonzero;"/>
                </g>
                <g transform="matrix(0.970002,-0.243098,-0.243098,-0.970002,808.319,411.133)">
                    <path d="M-1.057,-0.048C-0.177,0.706 0.486,1.73 0.789,2.939C1.34,5.137 0.551,7.351 -1.057,8.735C-1.486,8.029 -1.817,7.246 -2.028,6.403C-2.6,4.119 -2.187,1.82 -1.057,-0.048" style="fill:rgb(254,197,49);fill-rule:nonzero;"/>
                </g>
                <g transform="matrix(1,0,0,1,855.871,399.804)">
                    <path d="M0,-5.128L-8.259,3.227L-9.399,3.227L-17.706,-5.128L-17.706,11.678L-23.451,11.678L-23.451,-16.806L-21.884,-16.806L-8.924,-4.036L4.178,-16.806L5.697,-16.806L5.697,11.678L0,11.678L0,-5.128Z" style="fill:rgb(0,58,71);fill-rule:nonzero;"/>
                </g>
                <g transform="matrix(1,0,0,1,879.14,411.482)">
                    <path d="M0,-28.483L0.997,-28.483L15.666,0L9.163,0L7.309,-3.893L-6.314,-3.893L-8.118,0L-14.621,0L0,-28.483ZM0.665,-18.087L0.284,-18.087L-4.035,-8.783L-4.368,-8.165L5.317,-8.165L4.984,-8.783L0.665,-18.087Z" style="fill:rgb(0,58,71);fill-rule:nonzero;"/>
                </g>
                <g transform="matrix(1,0,0,1,897.753,411.482)">
                    <path d="M0,-28.483L12.866,-28.483C20.081,-28.483 24.544,-24.923 24.544,-18.704C24.544,-14.479 22.454,-11.583 19.179,-10.016L19.179,-9.589L25.968,-0.569L25.968,0L19.464,0L13.151,-8.688L5.745,-8.688L5.745,0L0,0L0,-28.483ZM12.676,-23.451L5.745,-23.451L5.745,-13.53L12.817,-13.53C16.426,-13.53 18.609,-15.142 18.609,-18.467C18.609,-21.743 16.378,-23.451 12.676,-23.451" style="fill:rgb(0,58,71);fill-rule:nonzero;"/>
                </g>
                <g transform="matrix(1,0,0,1,801.8,393)">
                    <path d="M0,-7.134L6.087,-7.134L6.087,-5.873L3.768,-5.873L3.768,0L2.33,0L2.33,-5.873L0,-5.873L0,-7.134Z" style="fill:rgb(0,58,71);fill-rule:nonzero;"/>
                </g>
                <g transform="matrix(1,0,0,1,812.861,388.449)">
                    <path d="M0,1.971L0.119,1.971L0.702,0.617L2.224,-2.581L3.852,-2.581L0.178,4.552L-0.083,4.552L-3.733,-2.581L-2.116,-2.581L-0.582,0.617L0,1.971Z" style="fill:rgb(0,58,71);fill-rule:nonzero;"/>
                </g>
            </g>
        </g>
    </g>
</svg>
